X:1
T: Mrs. Captain Skene of Carreston's Strathspey
C:William Marshall
R:Strathspey
Q: 128
K:Eb
M:4/4
L:1/16
|:E4 e3c B3G FG3|E3C C3B, CF3 F3G|E4 e3c B2G2 AGFE|B,3E DEFD GE3 E4|
E4 e3c B3G FG3|E3C C3B, CF3 F3G|E4 e3c B2G2 AGFE|B,3E DEFD GE3 E4|
e2B2 e2g2 agfe f4|e2B2 f2B2 g2B2 f2B2|e3B e2g2 agfe f4|e3B A2G2 C2F2 D2B,2|
e2B2 e2g2 agfe f4|e2B2 f2B2 g2B2 f2B2|((3e2f2g2) ((3f2e2d2) ((3e2d2c2) ((3B2A2G2) |((3A2B2c2) ((3B2A2G2) C2F2 D2B,2:|
